X:1
T:Title
%%score ( 1 2 ) ( 3 4 )
L:1/8
Q:1/4=102
M:6/8
K:Ab
V:1 treble nm="Drawbar Organ, Soprano"
V:2 treble 
V:3 bass nm="Drawbar Organ, Ring the Bells (Mack)"
V:4 bass 
V:1
 [CE][DF][CE] [_C=D] [=CE]2 | [CA] [Ec]2- [Ec] [CA]2 | [CE][DF][CE] [_C=D] [=CE]2 | %3
w: By~Joseph~Lincoln~Hall * * * *|||
 [CA] [DG]2- [DG]2- [DG]/ z/ | z .F2 z3 | [DG] [Dd]2- [Dd] [DB]2 | [DB]B=A [DB] [DF]2 | %7
w: ||||
 [DG] [CE]2- [CE]2- [CE]/ z/ | [CE][DF][CE] [_C=D] [=CE]2 | [CA] [Ec]2- [Ec] [CA]2 | %10
w: |||
 [CA]AG [EA] [EB]2 | [EA] [Dd]2- [Dd]2- [Dd]/ z/ | [DA]AG [DA] [CE]2 | [EA]AG [=DA] E2 | %14
w: ||||
 [Ec] [Ge]2 [Gd] [Gc]2 | [GB] A2- A2- A/ z/ | [CEc]3 [CFc]3 | [CEc]3- [CEc]3/2 z/ [CE] | %18
w: ||||
 [DF][CE][_C=D] [=CE]2 [CE] | [DF][CE][_C=D] [=CE]2 [CE] | [DFd]3 [DGd]3 | %21
w: |||
 [DGd]3- [DGd]3/2 z/ [DF] | GF[D=E] [DF]2 [DF] | GF[D=E] [DF]2 [D_E] | [Ece]3 [Ece]3 | %25
w: ||||
 [EAe]3- [EAe]3/2 z/ [Ece] | [Ece]3 [=EBc=e]3 | [FAdf]6 | c e2 c e2 | B e2 B e2 | A6- | A6- | A6- | %33
w: ||||||||
 A3 z3 |] %34
w: |
V:2
 x6 | x6 | x6 | x6 | [DE]D-[DE] =D [_DE]2 | x6 | z D2 z3 | x6 | x6 | x6 | z E2 z3 | x6 | z D2 z3 | %13
 z =D2 z3 | x6 | x6 | x6 | x6 | x6 | x6 | x6 | x6 | .D3 z3 | .D3 z3 | x6 | x6 | x6 | x6 | E3 E3 | %29
 G3 G3 | C2 E FE=D | E2 E FE=D | E6- | E3 z3 |] %34
V:3
 [A,,A,] [A,,A,]2 [A,,A,] [A,,A,]2 | [A,,A,] [A,,A,]2- [A,,A,] [A,,A,]2 | %2
 [A,,A,] [A,,A,]2 [A,,A,] [A,,A,]2 | [A,,A,] [E,B,]2- [E,B,]2- [E,B,]/ z/ | %4
 [E,B,] [E,B,]2 [E,B,] [E,B,]2 | [E,B,] [E,G,]2- [E,G,] [E,G,]2 | [E,G,] [E,G,]2 [E,G,] [E,B,]2 | %7
 [E,B,] [A,,A,]2- [A,,A,]2- [A,,A,]/ z/ | [A,,A,] [A,,A,]2 [A,,A,] [A,,A,]2 | %9
 [A,,A,] [A,,A,]2- [A,,A,] [A,,A,]2 | A, [A,C]2 [A,C] [_G,C]2 | %11
 [_G,C] [F,A,]2- [F,A,]2- [F,A,]/ z/ | [F,A,] [F,A,]2 [F,A,] [E,A,]2 | %13
 [E,C] [=E,_C]2 [E,C] [_E,=C]2 | [D,A,] [E,B,]2 [E,B,] [E,E]2 | [E,D] [A,C]2- [A,C]2- [A,C]/ z/ | %16
 [A,,A,]3 [A,,A,]3 | [A,,A,]3- [A,,A,]3/2 z/ [A,,A,] | [A,,A,]2 [A,,A,] [A,,A,]2 [A,,A,] | %19
 [A,,A,]2 [A,,A,] [A,,A,]2 [A,,A,] | [E,B,]3 [E,B,]3 | [E,B,]3- [E,B,]3/2 z/ [E,B,] | %22
 [E,B,]2 [E,B,] [E,B,]2 [E,B,] | [E,B,]2 [E,B,] [E,B,]2 [E,B,] | [A,C]3 [A,C]3 | %25
 [A,C]3- [A,C]3/2 z/ [A,C] | [A,C]3 [C,G,B,]3 | [D,A,]6 | [E,A,C]3[K:treble] [EAc]3 | %29
 [E,B,D]3 [EBd]3 | f2 a bag | a2 a bag | a6- | a3 z3 |] %34
V:4
 x6 | x6 | x6 | x6 | x6 | x6 | x6 | x6 | x6 | x6 | x6 | x6 | x6 | x6 | x6 | x6 | x6 | x6 | x6 | %19
 x6 | x6 | x6 | x6 | x6 | x6 | x6 | x6 | x6 | x3[K:treble] x3 | x6 | F6- | F6- | F6- | F3 z3 |] %34

